Resources/Images/SVG/Settings/PID.svg

<svg x="0" y="0" width="48" height="48" version="1.1" xmlns="http://www.w3.org/2000/svg" xmlns:xlink="http://www.w3.org/1999/xlink"><defs><linearGradient x1="11.68966" y1="11.68966" x2="57.52354" y2="57.52354" gradientUnits="userSpaceOnUse" id="color-1"><stop offset="0" stop-color="#000000" stop-opacity="0.7"></stop><stop offset="1" stop-color="#000000" stop-opacity="0"></stop></linearGradient><filter id="dropshadow"><feColorMatrix type="matrix" values="0 0 0 0 .05  0 0 0 0 .15  0 0 0 0 .1  0 0 0 .8 0"></feColorMatrix> <feOffset dx="0" dy="1"></feOffset> <feGaussianBlur stdDeviation="1"></feGaussianBlur> <feComposite in="SourceGraphic"></feComposite></filter></defs><g fill="none" stroke="none" stroke-width="none" stroke-linecap="butt" stroke-linejoin="miter" stroke-miterlimit="none" stroke-dasharray="" stroke-dashoffset="0" font-family="none" font-weight="normal" font-size="none" text-anchor="start" mix-blend-mode="normal"><g fill="#000000" stroke="none" stroke-width="1" stroke-miterlimit="4" font-family="&quot;Open Sans&quot;, sans-serif" font-size="14"></g><g fill="#000000" stroke="none" stroke-width="1" stroke-miterlimit="4" font-family="&quot;Open Sans&quot;, sans-serif" font-size="14"></g><path d="M3,24c0,-11.59798 9.40202,-21 21,-21c11.59798,0 21,9.40202 21,21c0,11.59798 -9.40202,21 -21,21c-11.59798,0 -21,-9.40202 -21,-21z" fill="#b30000" stroke-width="1" stroke-miterlimit="10" font-family="sans-serif" font-size="12" filter="url(#dropshadow)"></path><path d="M22.63218,19.89654l-8.20688,-8.20688l19.14941,0c0.75571,0 1.43962,0.30605 1.9346,0.80103l9.38453,9.38453c0.07021,0.69873 0.10616,1.40756 0.10616,2.12478c0,11.59798 -9.40202,21 -21,21c-0.71723,0 -1.42606,-0.03596 -2.12478,-0.10616l-9.38453,-9.38453c-0.49498,-0.49497 -0.80103,-1.17888 -0.80103,-1.9346l2.73563,2.73563c0,0 0.00001,0 0.00001,0l-2.73564,-2.73564l0,-19.14941c0,-1.51144 1.22419,-2.73563 2.73563,-2.73563l8.20689,8.20689z" fill="url(#color-1)" stroke-width="1" stroke-miterlimit="10" font-family="sans-serif" font-size="12"></path><path d="M36.31034,14.42529l0,19.14941c0,1.51144 -1.22419,2.73563 -2.73563,2.73563l-19.14941,0c-1.51144,0 -2.73563,-1.22419 -2.73563,-2.73563l0,-19.14941c0,-1.51144 1.22419,-2.73563 2.73563,-2.73563l19.14941,0c1.51144,0 2.73563,1.22419 2.73563,2.73563z M25.36782,17.16092l-2.73563,0l0,13.67815l2.73563,0z M19.89655,21.26437l-2.73563,0l0,9.57471l2.73563,0z M30.83908,25.36782l-2.73563,0l0,5.47126l2.73563,0z" fill="#ffffff" stroke="none" stroke-width="0" stroke-miterlimit="4" font-family="&quot;Open Sans&quot;, sans-serif" font-size="14"></path></g></svg>

<?xml version="1.0" encoding="UTF-8" standalone="no"?>
<svg
   xmlns:dc="http://purl.org/dc/elements/1.1/"
   xmlns:cc="http://creativecommons.org/ns#"
   xmlns:rdf="http://www.w3.org/1999/02/22-rdf-syntax-ns#"
   xmlns:svg="http://www.w3.org/2000/svg"
   xmlns="http://www.w3.org/2000/svg"
   xmlns:sodipodi="http://sodipodi.sourceforge.net/DTD/sodipodi-0.dtd"
   xmlns:inkscape="http://www.inkscape.org/namespaces/inkscape"
   x="0"
   y="0"
   width="48"
   height="48"
   version="1.1"
   id="svg2"
   inkscape:version="0.91 r13725"
   sodipodi:docname="PID.svg">
  <metadata
     id="metadata34">
    <rdf:RDF>
      <cc:Work
         rdf:about="">
        <dc:format>image/svg+xml</dc:format>
        <dc:type
           rdf:resource="http://purl.org/dc/dcmitype/StillImage" />
      </cc:Work>
    </rdf:RDF>
  </metadata>
  <sodipodi:namedview
     pagecolor="#ffffff"
     bordercolor="#666666"
     borderopacity="1"
     objecttolerance="10"
     gridtolerance="10"
     guidetolerance="10"
     inkscape:pageopacity="0"
     inkscape:pageshadow="2"
     inkscape:window-width="640"
     inkscape:window-height="480"
     id="namedview32"
     showgrid="false"
     inkscape:zoom="4.9166667"
     inkscape:cx="24"
     inkscape:cy="24"
     inkscape:window-x="0"
     inkscape:window-y="0"
     inkscape:window-maximized="0"
     inkscape:current-layer="svg2" />
  <defs
     id="defs4">
    <linearGradient
       x1="11.68966"
       y1="11.68966"
       x2="57.52354"
       y2="57.52354"
       gradientUnits="userSpaceOnUse"
       id="color-1">
      <stop
         offset="0"
         stop-color="#000000"
         stop-opacity="0.7"
         id="stop7" />
      <stop
         offset="1"
         stop-color="#000000"
         stop-opacity="0"
         id="stop9" />
    </linearGradient>
    <filter
       id="dropshadow">
      <feColorMatrix
         type="matrix"
         values="0 0 0 0 .05  0 0 0 0 .15  0 0 0 0 .1  0 0 0 .8 0"
         id="feColorMatrix12" />
      <feOffset
         dx="0"
         dy="1"
         id="feOffset14" />
      <feGaussianBlur
         stdDeviation="1"
         id="feGaussianBlur16"
         result="result1" />
      <feComposite
         in="SourceGraphic"
         id="feComposite18"
         in2="result1" />
    </filter>
  </defs>
  <g
     id="g3367">
    <g
       stroke-miterlimit="4"
       font-size="14"
       id="g22"
       style="font-weight:normal;font-size:14px;font-family:'Open Sans', sans-serif;text-anchor:start;mix-blend-mode:normal;fill:#000000;stroke:none;stroke-width:1;stroke-linecap:butt;stroke-linejoin:miter;stroke-miterlimit:4;stroke-dasharray:none;stroke-dashoffset:0" />
    <g
       stroke-miterlimit="4"
       font-size="14"
       id="g24"
       style="font-weight:normal;font-size:14px;font-family:'Open Sans', sans-serif;text-anchor:start;mix-blend-mode:normal;fill:#000000;stroke:none;stroke-width:1;stroke-linecap:butt;stroke-linejoin:miter;stroke-miterlimit:4;stroke-dasharray:none;stroke-dashoffset:0" />
    <path
       d="M 3,24 C 3,12.40202 12.40202,3 24,3 35.59798,3 45,12.40202 45,24 45,35.59798 35.59798,45 24,45 12.40202,45 3,35.59798 3,24 Z"
       stroke-miterlimit="10"
       font-size="12"
       id="path26"
       inkscape:connector-curvature="0"
       style="font-weight:normal;font-size:12px;font-family:sans-serif;text-anchor:start;mix-blend-mode:normal;fill:#b30000;stroke:none;stroke-width:1;stroke-linecap:butt;stroke-linejoin:miter;stroke-miterlimit:10;stroke-dasharray:none;stroke-dashoffset:0;filter:url(#dropshadow)" />
    <path
       d="m 22.63218,19.89654 -8.20688,-8.20688 19.14941,0 c 0.75571,0 1.43962,0.30605 1.9346,0.80103 l 9.38453,9.38453 C 44.96405,22.57395 45,23.28278 45,24 45,35.59798 35.59798,45 24,45 23.28277,45 22.57394,44.96404 21.87522,44.89384 l -9.38453,-9.38453 c -0.49498,-0.49497 -0.80103,-1.17888 -0.80103,-1.9346 l 2.73563,2.73563 c 0,0 10e-6,0 10e-6,0 l -2.73564,-2.73564 0,-19.14941 c 0,-1.51144 1.22419,-2.73563 2.73563,-2.73563 l 8.20689,8.20689 z"
       stroke-miterlimit="10"
       font-size="12"
       id="path28"
       style="font-weight:normal;font-size:12px;font-family:sans-serif;text-anchor:start;mix-blend-mode:normal;fill:url(#color-1);stroke:none;stroke-width:1;stroke-linecap:butt;stroke-linejoin:miter;stroke-miterlimit:10;stroke-dasharray:none;stroke-dashoffset:0"
       inkscape:connector-curvature="0" />
    <path
       d="m 36.31034,14.42529 0,19.14941 c 0,1.51144 -1.22419,2.73563 -2.73563,2.73563 l -19.14941,0 c -1.51144,0 -2.73563,-1.22419 -2.73563,-2.73563 l 0,-19.14941 c 0,-1.51144 1.22419,-2.73563 2.73563,-2.73563 l 19.14941,0 c 1.51144,0 2.73563,1.22419 2.73563,2.73563 z m -10.94252,2.73563 -2.73563,0 0,13.67815 2.73563,0 z m -5.47127,4.10345 -2.73563,0 0,9.57471 2.73563,0 z m 10.94253,4.10345 -2.73563,0 0,5.47126 2.73563,0 z"
       stroke-miterlimit="4"
       font-size="14"
       id="path30"
       inkscape:connector-curvature="0"
       style="font-weight:normal;font-size:14px;font-family:'Open Sans', sans-serif;text-anchor:start;mix-blend-mode:normal;fill:#ffffff;stroke:none;stroke-width:0;stroke-linecap:butt;stroke-linejoin:miter;stroke-miterlimit:4;stroke-dasharray:none;stroke-dashoffset:0" />
  </g>
</svg>
